images_elementary_svg/cmd/lc_formatpaintbrush.svg

<?xml version="1.0" encoding="UTF-8" standalone="no"?>
<svg
   xmlns:dc="http://purl.org/dc/elements/1.1/"
   xmlns:cc="http://creativecommons.org/ns#"
   xmlns:rdf="http://www.w3.org/1999/02/22-rdf-syntax-ns#"
   xmlns:svg="http://www.w3.org/2000/svg"
   xmlns="http://www.w3.org/2000/svg"
   xmlns:xlink="http://www.w3.org/1999/xlink"
   xmlns:sodipodi="http://sodipodi.sourceforge.net/DTD/sodipodi-0.dtd"
   xmlns:inkscape="http://www.inkscape.org/namespaces/inkscape"
   version="1.0"
   width="24"
   height="24"
   id="svg2"
   sodipodi:docname="lc_formatpaintbrush.svg"
   inkscape:version="0.92.3 (unknown)"
   inkscape:export-filename="/home/rizmut/Dokumen/Rizmut/Github/libreoffice-style-elementary/images_elementary/cmd/lc_formatpaintbrush.png"
   inkscape:export-xdpi="96"
   inkscape:export-ydpi="96">
  <sodipodi:namedview
     pagecolor="#ffffff"
     bordercolor="#666666"
     borderopacity="1"
     objecttolerance="10"
     gridtolerance="10"
     guidetolerance="10"
     inkscape:pageopacity="0"
     inkscape:pageshadow="2"
     inkscape:window-width="1366"
     inkscape:window-height="706"
     id="namedview58"
     showgrid="false"
     inkscape:zoom="8"
     inkscape:cx="10.371137"
     inkscape:cy="22.662531"
     inkscape:window-x="-2"
     inkscape:window-y="-1"
     inkscape:window-maximized="0"
     inkscape:current-layer="svg2" />
  <defs
     id="defs4">
    <linearGradient
       id="linearGradient6019">
      <stop
         id="stop6021"
         style="stop-color:#000000;stop-opacity:1"
         offset="0" />
      <stop
         id="stop6023"
         style="stop-color:#000000;stop-opacity:0"
         offset="1" />
    </linearGradient>
    <linearGradient
       id="linearGradient5996">
      <stop
         id="stop5998"
         style="stop-color:#8f5902;stop-opacity:1"
         offset="0" />
      <stop
         id="stop6000"
         style="stop-color:#73521e;stop-opacity:1"
         offset="1" />
    </linearGradient>
    <linearGradient
       id="linearGradient5958">
      <stop
         id="stop5960"
         style="stop-color:#c17d11;stop-opacity:1"
         offset="0" />
      <stop
         id="stop5962"
         style="stop-color:#e9b96e;stop-opacity:1"
         offset="1" />
    </linearGradient>
    <linearGradient
       id="linearGradient5984">
      <stop
         id="stop5986"
         style="stop-color:#ffffff;stop-opacity:1"
         offset="0" />
      <stop
         id="stop5988"
         style="stop-color:#ffffff;stop-opacity:0.13438736"
         offset="1" />
    </linearGradient>
    <linearGradient
       id="linearGradient5966">
      <stop
         id="stop5968"
         style="stop-color:#fdef72;stop-opacity:1"
         offset="0" />
      <stop
         id="stop5970"
         style="stop-color:#e2cb0b;stop-opacity:1"
         offset="1" />
    </linearGradient>
    <linearGradient
       id="linearGradient5981">
      <stop
         id="stop5983"
         style="stop-color:#ffffff;stop-opacity:1"
         offset="0" />
      <stop
         id="stop5985"
         style="stop-color:#ffffff;stop-opacity:0.69411767"
         offset="1" />
    </linearGradient>
    <linearGradient
       id="linearGradient5999">
      <stop
         id="stop6001"
         style="stop-color:#c4a000;stop-opacity:1"
         offset="0" />
      <stop
         id="stop6003"
         style="stop-color:#c4a000;stop-opacity:0"
         offset="1" />
    </linearGradient>
    <linearGradient
       id="linearGradient5974-892">
      <stop
         id="stop2473"
         style="stop-color:#919191;stop-opacity:1"
         offset="0" />
      <stop
         id="stop2475"
         style="stop-color:#cecece;stop-opacity:1"
         offset="1" />
    </linearGradient>
    <radialGradient
       cx="38"
       cy="69"
       r="20"
       fx="28.603323"
       fy="69"
       id="radialGradient2541"
       xlink:href="#linearGradient6019"
       gradientUnits="userSpaceOnUse"
       gradientTransform="matrix(0.5249934,0,0,0.15830878,-7.9497492,9.9327525)" />
    <linearGradient
       x1="28"
       y1="16"
       x2="26"
       y2="8"
       id="linearGradient2543"
       xlink:href="#linearGradient5958"
       gradientUnits="userSpaceOnUse"
       gradientTransform="matrix(0.5249934,0,0,0.5276959,-1.6498294,-0.7794711)" />
    <linearGradient
       x1="30.324829"
       y1="9.2407961"
       x2="33.047607"
       y2="18.829077"
       id="linearGradient2545"
       xlink:href="#linearGradient5996"
       gradientUnits="userSpaceOnUse"
       gradientTransform="matrix(0.5249934,0,0,0.5276959,-1.6498294,-0.7794711)" />
    <linearGradient
       x1="28"
       y1="8"
       x2="33.447109"
       y2="16.685888"
       id="linearGradient2547"
       xlink:href="#linearGradient5984"
       gradientUnits="userSpaceOnUse"
       gradientTransform="matrix(0.5249934,0,0,0.5276959,-1.6498293,-0.779471)" />
    <linearGradient
       x1="20.933708"
       y1="25.060659"
       x2="30.208115"
       y2="30.742676"
       id="linearGradient2549"
       xlink:href="#linearGradient5966"
       gradientUnits="userSpaceOnUse"
       gradientTransform="matrix(0.60416529,0,0,0.60727534,-3.2282468,-4.4299637)" />
    <linearGradient
       x1="22.319767"
       y1="41.955986"
       x2="17.905169"
       y2="41.688606"
       id="linearGradient2553"
       xlink:href="#linearGradient5981"
       gradientUnits="userSpaceOnUse"
       gradientTransform="matrix(0.60416529,0,0,0.60727534,-3.2282468,-4.4299637)" />
    <linearGradient
       x1="27.354809"
       y1="36.218422"
       x2="23.489431"
       y2="34.728424"
       id="linearGradient2555"
       xlink:href="#linearGradient5999"
       gradientUnits="userSpaceOnUse"
       gradientTransform="matrix(0.60416529,0,0,0.60727534,-3.2282467,-4.4299636)" />
    <linearGradient
       x1="27.651777"
       y1="23.145937"
       x2="21.59099"
       y2="20.618719"
       id="linearGradient2557"
       xlink:href="#linearGradient5974-892"
       gradientUnits="userSpaceOnUse"
       gradientTransform="matrix(0.5128237,0,0,0.5276959,-1.3215316,-0.7794711)" />
  </defs>
  <metadata
     id="metadata7">
    <rdf:RDF>
      <cc:Work
         rdf:about="">
        <dc:format>image/svg+xml</dc:format>
        <dc:type
           rdf:resource="http://purl.org/dc/dcmitype/StillImage" />
        <dc:title />
      </cc:Work>
    </rdf:RDF>
  </metadata>
  <path
     d="m 22.499868,20.856059 a 10.499868,3.1661757 0 1 1 -20.999736,0 10.499868,3.1661757 0 1 1 20.999736,0 z"
     id="path6017"
     style="opacity:0.25;fill:url(#radialGradient2541);fill-opacity:1;stroke:none;stroke-width:0.42975721"
     inkscape:connector-curvature="0" />
  <path
     d="m 9.761307,8.626457 c -3.1365646,0.93865 -5.3086801,5.892834 -8.5384158,8.473668 0.4034542,0.423513 0.8773848,0.877013 1.2884323,1.242738 l 0.7044214,-0.01944 -0.1033108,0.622707 c 1.3347443,1.087621 2.7217984,1.825835 3.6280464,2.129475 L 7.5894351,20.8865 7.3446458,21.379239 c 0.8772444,0.357614 3.0119362,0.899998 4.2291562,0.910913 l 0.679431,-0.191252 0.221212,0.229206 c 0.501192,0.09617 1.473054,0.227253 2.120184,0.246706 2.031317,-3.340015 2.416661,-8.786515 1.208332,-11.215617 z"
     id="path5367"
     style="fill:url(#linearGradient2549);fill-opacity:1;fill-rule:evenodd;stroke:none;stroke-width:1.15080571;stroke-linecap:butt;stroke-linejoin:miter;stroke-miterlimit:20;stroke-dasharray:none;stroke-opacity:1"
     inkscape:connector-curvature="0"
     sodipodi:nodetypes="cccccccccccccc" />
  <path
     d="m 9.761307,8.626457 c -3.1365646,0.93865 -5.3086801,5.892834 -8.5384158,8.473668 0.4034542,0.423513 0.8773848,0.877013 1.2884323,1.242738 l 0.7044214,-0.01944 -0.1033108,0.622705 c 1.3347443,1.087621 2.7217984,1.825835 3.6280464,2.129475 l 0.5124061,-0.452586 -0.460668,0.99929 c 0.8772444,0.357614 3.0119362,0.899998 4.2291564,0.910913 l 1.231858,-0.434321 0.221212,0.229207 c 0.501192,0.09617 1.473054,0.227253 2.120184,0.246706 2.031317,-3.340015 2.416661,-8.786515 1.208332,-11.215617 z"
     id="path5367-1"
     style="opacity:0.5;fill:none;fill-opacity:1;fill-rule:evenodd;stroke:#ad5f00;stroke-width:1.15080571;stroke-linecap:butt;stroke-linejoin:miter;stroke-miterlimit:20;stroke-dasharray:none;stroke-opacity:1"
     inkscape:connector-curvature="0"
     sodipodi:nodetypes="cccccccccccccc" />
  <path
     d="M 3.4175713,18.950136 C 6.3275303,15.907143 6.1151832,14.575371 9.529378,11.949632 7.7274899,14.881819 7.4354384,16.407068 5.230067,20.164687 Z"
     id="path5975"
     style="opacity:0.26666667;fill:#c4a000;fill-rule:evenodd;stroke:none;stroke-width:1.15080547"
     inkscape:connector-curvature="0" />
  <path
     d="m 7.7372369,21.198543 2.6257181,-5.975677 c 1.005641,-1.811943 1.727715,-3.625464 2.736249,-5.069141 -0.967846,3.290239 -2.954786,7.361264 -4.5501201,11.310502 z"
     id="path5979"
     style="opacity:0.41568627;fill:#c4a000;fill-rule:evenodd;stroke:none;stroke-width:1.15080547"
     inkscape:connector-curvature="0" />
  <path
     d="m 1.8299708,17.187553 c -0.00214,0.701818 1.1858336,0.645435 0.6813527,1.15531 L 4.753219,17.374244 4.2042181,18.984699 c 0.7673099,0.624045 1.6097589,0.893157 2.5186985,1.260329 L 8.507502,18.260219 8.1049311,20.997804 c 1.8453463,0.344554 1.7011851,0.327495 2.8164039,0.486034 l 1.882966,-0.142182 0.913251,0.0187 0.170725,0.0461 C 14.754175,19.866712 14.787712,18.7813 15.151791,16.914171 16.095904,12.07241 6.6417861,9.509452 6.1094392,11.590309 5.062735,13.96801 3.6172351,15.495123 1.8299708,17.187553 Z"
     id="path6014"
     style="opacity:0.47843137;fill:none;stroke:url(#linearGradient2553);stroke-width:1.15080571px;stroke-linecap:butt;stroke-linejoin:miter;stroke-opacity:1"
     inkscape:connector-curvature="0"
     sodipodi:nodetypes="cccccccccccscc" />
  <path
     d="m 9.440344,21.682876 c 1.315609,-3.49297 3.864189,-6.114621 4.843541,-9.677184 0.03114,2.223887 0.15087,6.196471 -1.14303,10.151617 -0.193191,0.0011 -0.10508,-0.06729 -0.283885,-0.07199 l -0.603737,0.01358 -0.453069,0.612305 c -1.32361,-0.09493 -1.224101,-0.709414 -2.35982,-1.028325 z"
     id="path5977"
     style="opacity:0.24705882;fill:url(#linearGradient2555);fill-opacity:1;fill-rule:evenodd;stroke:none;stroke-width:1.15080547"
     inkscape:connector-curvature="0"
     sodipodi:nodetypes="cccccccc" />
  <path
     d="m 8.8671183,10.736638 c -6.7978217,8.899834 -3.3989107,4.449916 0,0 z"
     id="path5995"
     style="opacity:0.48235294;fill:#c4a000;fill-rule:evenodd;stroke:none;stroke-width:1.15080547"
     inkscape:connector-curvature="0"
     sodipodi:nodetypes="cc" />
  <path
     d="m 5.6726729,11.899828 c -0.3424289,-1.800866 10.3100231,3.59927 11.3395121,4.110271 -0.0039,0.655291 0.101524,1.088199 -0.488636,1.088199 C 14.972331,16.252377 7.8022048,12.74347 5.6726729,11.899828 Z"
     id="path6013"
     style="opacity:0.2;fill:#000000;fill-opacity:1;fill-rule:evenodd;stroke:none;stroke-width:1.15080547"
     inkscape:connector-curvature="0"
     sodipodi:nodetypes="cccc" />
  <path
     d="M 17.561648,0.52327815 C 14.168723,-0.88290432 13.25339,7.0970312 12.017975,8.631952 11.005602,8.403174 9.3375802,7.8267327 8.6791526,7.9630605 7.8057943,8.14389 6.4140929,10.117896 6.1094392,11.590309 l 10.9027458,4.41979 0.07212,-2.022427 C 17.889895,12.139924 16.242374,10.771132 14.117953,9.390516 15.49949,7.0837118 21.040539,3.7061753 17.98821,0.53976861 17.84148,0.52342631 17.700577,0.52147971 17.561653,0.52327811 Z M 17.020249,1.611651 c 0.101618,-0.00989 0.19319,0.00302 0.278902,0.049472 0.342852,0.1858136 0.379914,0.7888406 0.08203,1.3357301 C 17.083296,3.5437429 16.5592,3.8422867 16.216352,3.6564731 15.873504,3.4706588 15.703856,2.6466612 16.001739,2.0997715 16.225153,1.6896041 16.715392,1.6413159 17.020249,1.611651 Z"
     id="path5371"
     style="fill:url(#linearGradient2543);fill-opacity:1;fill-rule:evenodd;stroke:url(#linearGradient2545);stroke-width:1.00000024px;stroke-linecap:butt;stroke-linejoin:miter;stroke-opacity:1"
     inkscape:connector-curvature="0"
     sodipodi:nodetypes="ccscccccsccccccc" />
  <path
     d="M 17.578054,1.5621796 C 16.951397,1.7074541 16.187552,1.4128665 15.6244,2.081964 15.060045,2.7524911 14.701106,4.2798492 14.296845,5.3879748 13.892584,6.4961003 13.568159,7.6699161 13.263264,8.7025647 13.117805,9.1952221 12.999711,9.6449362 12.853113,10.054785 13.066672,10.227648 10.526501,8.5915682 8.7137066,9.0411625 7.7160015,9.2886051 7.1845069,10.703028 7.4719483,11.248963 c 0.5260578,0.999136 8.8843267,3.655182 9.1379587,3.89584 0.644023,0.611079 -0.634498,-2.203581 -0.510702,-2.491078 1.1041,1.507525 0.05009,-0.804139 -0.332488,-1.171858 -0.82994,-0.797705 -2.561804,-1.4837528 -2.52804,-1.5327439 0.954307,-1.3846937 3.15721,-3.7384706 4.303189,-5.6026868 C 18.222923,3.2385293 17.962398,2.7110884 18.05383,2.1228535 18.09955,1.828736 18.04843,1.696835 18.03742,1.67761 18.02772,1.660717 17.97802,1.630319 17.79133,1.578667 17.72553,1.574517 17.665005,1.561051 17.578051,1.562176 Z"
     id="path5992"
     style="opacity:0.26666667;fill:none;stroke:url(#linearGradient2547);stroke-width:1.00000012px;stroke-linecap:butt;stroke-linejoin:miter;stroke-opacity:1"
     inkscape:connector-curvature="0"
     sodipodi:nodetypes="cssccssscsssccccc" />
</svg>

<?xml version="1.0" encoding="UTF-8" standalone="no"?>
<svg xmlns:rdf="http://www.w3.org/1999/02/22-rdf-syntax-ns#" xmlns="http://www.w3.org/2000/svg" height="24" width="24" version="1.0" xmlns:cc="http://creativecommons.org/ns#" xmlns:xlink="http://www.w3.org/1999/xlink" xmlns:dc="http://purl.org/dc/elements/1.1/">
 <defs>
  <radialGradient id="radialGradient2541" fx="28.603" gradientUnits="userSpaceOnUse" cy="69" cx="38" gradientTransform="matrix(.52499 0 0 .15831 -7.9497 9.9328)" r="20">
   <stop offset="0"/>
   <stop stop-opacity="0" offset="1"/>
  </radialGradient>
  <linearGradient id="linearGradient2543" y2="8" gradientUnits="userSpaceOnUse" x2="26" gradientTransform="matrix(.52499 0 0 .52770 -1.6498 -.77947)" y1="16" x1="28">
   <stop stop-color="#c17d11" offset="0"/>
   <stop stop-color="#e9b96e" offset="1"/>
  </linearGradient>
  <linearGradient id="linearGradient2545" y2="18.829" gradientUnits="userSpaceOnUse" x2="33.048" gradientTransform="matrix(.52499 0 0 .52770 -1.6498 -.77947)" y1="9.2408" x1="30.325">
   <stop stop-color="#8f5902" stop-opacity=".46324" offset="0"/>
   <stop stop-color="#73521e" stop-opacity=".56618" offset="1"/>
  </linearGradient>
  <linearGradient id="linearGradient2547" y2="16.686" gradientUnits="userSpaceOnUse" x2="33.447" gradientTransform="matrix(.52499 0 0 .52770 -1.6498 -.77947)" y1="8" x1="28">
   <stop stop-color="#fff" offset="0"/>
   <stop stop-color="#fff" stop-opacity=".13439" offset="1"/>
  </linearGradient>
  <linearGradient id="linearGradient2549" y2="30.743" gradientUnits="userSpaceOnUse" x2="30.208" gradientTransform="matrix(.60417 0 0 .60728 -3.2282 -4.43)" y1="25.061" x1="20.934">
   <stop stop-color="#fdef72" offset="0"/>
   <stop stop-color="#e2cb0b" offset="1"/>
  </linearGradient>
  <linearGradient id="linearGradient2553" y2="41.689" gradientUnits="userSpaceOnUse" x2="17.905" gradientTransform="matrix(.60417 0 0 .60728 -3.2282 -4.43)" y1="41.956" x1="22.32">
   <stop stop-color="#fff" offset="0"/>
   <stop stop-color="#fff" stop-opacity=".69412" offset="1"/>
  </linearGradient>
  <linearGradient id="linearGradient2555" y2="34.728" gradientUnits="userSpaceOnUse" x2="23.489" gradientTransform="matrix(.60417 0 0 .60728 -3.2282 -4.43)" y1="36.218" x1="27.355">
   <stop stop-color="#c4a000" offset="0"/>
   <stop stop-color="#c4a000" stop-opacity="0" offset="1"/>
  </linearGradient>
 </defs>
 <metadata>
  <rdf:RDF>
   <cc:Work rdf:about="">
    <dc:format>image/svg+xml</dc:format>
    <dc:type rdf:resource="http://purl.org/dc/dcmitype/StillImage"/>
    <dc:title/>
   </cc:Work>
  </rdf:RDF>
 </metadata>
 <path opacity=".25" d="m22.5 20.856a10.5 3.1662 0 1 1 -21 0 10.5 3.1662 0 1 1 21 0z" fill="url(#radialGradient2541)"/>
 <path d="m9.7613 8.6265c-3.1366 0.93865-5.3087 5.8928-8.5384 8.4737 0.40345 0.42351 0.87738 0.87701 1.2884 1.2427l0.70442-0.01944-0.10331 0.62271c1.3347 1.0876 2.7218 1.8258 3.628 2.1295l0.849-0.19-0.2448 0.493c0.87724 0.35761 3.0119 0.9 4.2292 0.91091l0.67943-0.19125 0.22121 0.22921c0.50119 0.09617 1.4731 0.22725 2.1202 0.24671 2.0313-3.34 2.4167-8.7865 1.2083-11.216z" fill-rule="evenodd" fill="url(#linearGradient2549)"/>
 <path opacity=".5" d="m9.7613 8.6265c-3.1366 0.93865-5.3087 5.8928-8.5384 8.4737 0.40345 0.42351 0.87738 0.87701 1.2884 1.2427l0.70442-0.01944-0.10331 0.6227c1.3347 1.0876 2.7218 1.8258 3.628 2.1295l0.51241-0.45259-0.46067 0.99929c0.87724 0.35761 3.0119 0.9 4.2292 0.91091l1.2319-0.43432 0.22121 0.22921c0.50119 0.09617 1.4731 0.22725 2.1202 0.24671 2.0313-3.34 2.4167-8.7865 1.2083-11.216z" stroke="#ad5f00" stroke-miterlimit="20" stroke-width="1.1508" fill="none"/>
 <path opacity=".26667" d="m3.4176 18.95c2.9099-3.043 2.6976-4.375 6.1118-7-1.8019 2.932-2.094 4.457-4.2993 8.215z" fill-rule="evenodd" fill="#c4a000"/>
 <path opacity=".41569" d="m7.7372 21.199 2.6257-5.9757c1.0056-1.8119 1.7277-3.6255 2.7362-5.0691-0.96785 3.2902-2.9548 7.3613-4.5501 11.311z" fill-rule="evenodd" fill="#c4a000"/>
 <path opacity=".47843" d="m1.83 17.188c-0.00214 0.70182 1.1858 0.64544 0.68135 1.1553l2.2418-0.969-0.549 1.611c0.76731 0.62404 1.6098 0.89316 2.5187 1.2603l1.7846-1.985-0.4026 2.738c1.8453 0.34455 1.7012 0.3275 2.8164 0.48603l1.883-0.14218 0.91325 0.0187 0.17072 0.0461c0.866-1.54 0.9-2.626 1.264-4.493 0.944-4.842-8.5102-7.4045-9.0426-5.324-1.0467 2.378-2.4922 3.905-4.2794 5.598z" stroke="url(#linearGradient2553)" stroke-width="1.1508px" fill="none"/>
 <g fill-rule="evenodd">
  <path opacity=".24706" d="m9.4403 21.683c1.3156-3.493 3.8642-6.1146 4.8435-9.6772 0.03114 2.2239 0.15087 6.1965-1.143 10.152-0.19319 0.0011-0.10508-0.06729-0.28388-0.07199l-0.60374 0.01358-0.45307 0.6123c-1.3236-0.09493-1.2241-0.70941-2.3598-1.0283z" fill="url(#linearGradient2555)"/>
  <path opacity=".48235" d="m8.8671 10.737c-6.7978 8.8998-3.3989 4.4499 0 0z" fill="#c4a000"/>
  <path opacity=".2" d="m5.6727 11.9c-0.34243-1.8009 10.31 3.5993 11.34 4.1103-0.0039 0.65529 0.10152 1.0882-0.48864 1.0882-1.552-0.846-8.7218-4.355-10.851-5.198z"/>
  <path d="m17.562 0.52328c-3.393-1.4062-4.309 6.5737-5.544 8.1087-1.012-0.2288-2.9128-1.1891-3.3388-0.6689-0.4043 0.4935-2.6211 2.3339-3.1948 3.6269l11.528 4.4198 0.29087-2.5224c0.806-1.847-1.061-2.716-3.185-4.0965 1.381-2.3068 6.923-5.6843 3.87-8.8507-0.147-0.01637-0.287-0.01832-0.426-0.01652zm-0.542 1.0884c0.10162-0.00989 0.19319 0.00302 0.2789 0.049472 0.34285 0.18581 0.37991 0.78884 0.08203 1.3357-0.298 0.5468-0.822 0.8454-1.165 0.6596-0.342-0.1858-0.512-1.0098-0.214-1.5567 0.223-0.4102 0.713-0.4585 1.018-0.4881z" stroke="url(#linearGradient2545)" fill="url(#linearGradient2543)"/>
 </g>
 <path opacity=".26667" d="m17.578 1.5622c-0.627 0.1453-1.39-0.1493-1.954 0.5198-0.564 0.6705-0.923 2.1978-1.327 3.306-0.404 1.1081-0.729 2.2819-1.034 3.3146-0.145 0.4926-0.263 0.9423-0.41 1.3524 0.214 0.173-2.326-1.4634-4.1393-1.0138-0.9977 0.2474-1.5292 1.6618-1.2418 2.2078 0.52606 0.99914 8.8843 3.6552 9.138 3.8958 0.64402 0.61108-0.6345-2.2036-0.5107-2.4911 1.1041 1.5075 0.05009-0.80414-0.33249-1.1719-0.82994-0.7977-2.5618-1.4838-2.528-1.5327 0.95431-1.3847 3.1572-3.7385 4.3032-5.6027 0.681-1.1079 0.42-1.6353 0.512-2.2235 0.046-0.2942-0.006-0.4261-0.017-0.4453-0.009-0.0169-0.059-0.0473-0.246-0.0989-0.065-0.0042-0.126-0.0176-0.213-0.0165z" stroke="url(#linearGradient2547)" stroke-width="1px" fill="none"/>
</svg>
